X:91
T:SUPGDWSK- We all take a sup of it in our turn
S:O'Farrell's 'Pocket Companion', II, p. 119, c 1810.
Q:1/4=120
L:1/8
M:6/8
K:D
Add dcd|e2cA2A|Aee e3/2f/2g|a2fd2a/g/|(f3/2g/a) agf|\
b2ge2(g/f/)|e3/2f/g (gfe)|a2fd2A|Add cee|fdd gee|\
(fg)a (gf)e|d3z2A|Add cee|fdd gee|(fg)a (gf)e|d6|]

